X:1
T:The Bumpkin
L:1/8
M:6/8
I:linebreak $
K:G
V:1 treble 
V:1
 c3 B3 | ABG FED | GAG BAB | GAG BAB | c3 B3 | ABA fdf | g2 d edc | BAB GAB |$ c2 (3d/e/f/ gdB | %9
 ABG FED | GAG BAB | GAG BAB | G2 f gdB | ABA fef | g2 d edc | BAB G3 |$ cAc BGB | ABG FED | %18
 GAG BAB | GAG BAB | cAc BGB | ABA fef | g2 d edc | BAB G3 || %24
